; G-Code generated by Simplify3D(R) Version 4.1.2
; May 15, 2022 at 2:25:23 PM
; Settings Summary
;   processName,Print With Left PLA
;   applyToModels,base
;   profileName,Qidi  Qidi Tech I (low res fast) (right only) (modified)
;   profileVersion,2022-04-17 15:50:12
;   baseProfile,Qidi Technology Qidi Tech I (modified)
;   printMaterial,PLA (right) PVA (left)
;   printQuality,Medium
;   printExtruders,Right Extruder Only
;   extruderName,Right Extruder,Left Extruder
;   extruderToolheadNumber,0,1
;   extruderDiameter,0.4,0.4
;   extruderAutoWidth,0,1
;   extruderWidth,0.47,0.48
;   extrusionMultiplier,0.9,0.95
;   extruderUseRetract,1,1
;   extruderRetractionDistance,1.6,0.2
;   extruderExtraRestartDistance,0.2,0
;   extruderRetractionZLift,0.4,1
;   extruderRetractionSpeed,1200,1200
;   extruderUseCoasting,1,1
;   extruderCoastingDistance,0.2,0.2
;   extruderUseWipe,1,1
;   extruderWipeDistance,2,5
;   primaryExtruder,0
;   layerHeight,0.3
;   topSolidLayers,3
;   bottomSolidLayers,3
;   perimeterOutlines,6
;   printPerimetersInsideOut,1
;   startPointOption,2
;   startPointOriginX,0
;   startPointOriginY,0
;   sequentialIslands,0
;   spiralVaseMode,0
;   firstLayerHeightPercentage,90
;   firstLayerWidthPercentage,100
;   firstLayerUnderspeed,0.6
;   useRaft,0
;   raftExtruder,0
;   raftTopLayers,2
;   raftBaseLayers,1
;   raftOffset,3
;   raftSeparationDistance,0.05
;   raftTopInfill,99
;   aboveRaftSpeedMultiplier,0.5
;   useSkirt,0
;   skirtExtruder,0
;   skirtLayers,1
;   skirtOutlines,2
;   skirtOffset,4
;   usePrimePillar,0
;   primePillarExtruder,999
;   primePillarWidth,12
;   primePillarLocation,7
;   primePillarSpeedMultiplier,1
;   useOozeShield,0
;   oozeShieldExtruder,999
;   oozeShieldOffset,2
;   oozeShieldOutlines,1
;   oozeShieldSidewallShape,1
;   oozeShieldSidewallAngle,30
;   oozeShieldSpeedMultiplier,1
;   infillExtruder,0
;   internalInfillPattern,Full Honeycomb
;   externalInfillPattern,Rectilinear
;   infillPercentage,20
;   outlineOverlapPercentage,50
;   infillExtrusionWidthPercentage,100
;   minInfillLength,8
;   infillLayerInterval,1
;   internalInfillAngles,0,120,-120
;   overlapInternalInfillAngles,0
;   externalInfillAngles,45,-45
;   generateSupport,1
;   supportExtruder,0
;   supportInfillPercentage,20
;   supportExtraInflation,0.2
;   supportBaseLayers,3
;   denseSupportExtruder,0
;   denseSupportLayers,1
;   denseSupportInfillPercentage,1
;   supportLayerInterval,1
;   supportHorizontalPartOffset,0.2
;   supportUpperSeparationLayers,1
;   supportLowerSeparationLayers,1
;   supportType,1
;   supportGridSpacing,2.5
;   maxOverhangAngle,0
;   supportAngles,0
;   temperatureName,Right Extruder,Left Extruder,Heated Build Platform
;   temperatureNumber,0,1,0
;   temperatureSetpointCount,1,1,1
;   temperatureSetpointLayers,1,1,1
;   temperatureSetpointTemperatures,205,0,50
;   temperatureStabilizeAtStartup,0,0,1
;   temperatureHeatedBed,0,0,1
;   fanLayers,1,2
;   fanSpeeds,0,100
;   blipFanToFullPower,0
;   adjustSpeedForCooling,1
;   minSpeedLayerTime,15
;   minCoolingSpeedSlowdown,65
;   increaseFanForCooling,1
;   minFanLayerTime,45
;   maxCoolingFanSpeed,100
;   increaseFanForBridging,0
;   bridgingFanSpeed,100
;   use5D,1
;   relativeEdistances,1
;   allowEaxisZeroing,0
;   independentExtruderAxes,1
;   includeM10123,0
;   stickySupport,1
;   applyToolheadOffsets,0
;   gcodeXoffset,0
;   gcodeYoffset,0
;   gcodeZoffset,0
;   overrideMachineDefinition,1
;   machineTypeOverride,0
;   strokeXoverride,225
;   strokeYoverride,145
;   strokeZoverride,150
;   originOffsetXoverride,112.5
;   originOffsetYoverride,72.5
;   originOffsetZoverride,0
;   homeXdirOverride,1
;   homeYdirOverride,1
;   homeZdirOverride,-1
;   flipXoverride,1
;   flipYoverride,-1
;   flipZoverride,1
;   toolheadOffsets,0,0|34,0|0,0|0,0|0,0|0,0
;   overrideFirmwareConfiguration,1
;   firmwareTypeOverride,MakerBot/Sailfish Firmware
;   GPXconfigOverride,r1d
;   baudRateOverride,115200
;   overridePrinterModels,1
;   printerModelsOverride,MakerBot_Replicator1.stl
;   startingGcode,M73 P0 ; Enable build progress,G162 X Y F3000 ; Home XY maximum,G161 Z F1200 ; Home Z minimum,G92 Z-5 ; Set Z to -5,G1 Z0 ; Move Z to 0,G161 Z F100 ; Home Z slowly,M132 X Y Z A B ; Recall home offsets,M135 T0 ; Load right extruder offsets,G1 X-110 Y-70 Z30 F9000 ; Move to wait position off table,G130 X20 Y20 Z20 A20 B20 ; Lower stepper Vrefs while heating,M126 S[fan_speed_pwm] ; Set fan speed,M140 S[bed0_temperature] T0 ; Heat buildplate ,M134 T0 ; Stabilize bed temperature,M104 S[extruder0_temperature] T0 ; Heat right extruder,M133 T0 ; Stabilize right extruder temperature,G130 X127 Y127 Z40 A127 B127 ; Default stepper Vrefs,G92 A0 B0 ; Zero extruders,G1 X100 Y-70 F9000 ; Move to front right corner of bed,G1 Z0.3 F6000 ; Move down to purge,G1 X-90 Y-70 E24 F2000 ; Extrude a line of filament across the front edge of the bed,G1 X-100 Y-70 F180 ; Wait for ooze,G1 X-110 Y-70 F5000 ; Fast wipe,G1 Z0.5 F100 ; Lift,M73 P1 ; @body (notify GPX body has started)
;   layerChangeGcode,
;   retractionGcode,
;   toolChangeGcode,
;   endingGcode,M73 P100 ; end build progress,G1 Z150 F1000 ; send Z axis to bottom of machine,M140 S0 T0 ; cool down HBP,M104 S0 T0 ; cool down right extruder,M104 S0 T1 ; cool down left extruder,M127 ; stop blower fan,G162 X Y F3000 ; home XY maximum,M18 ; disable stepper,M72 P1 ; play Ta-Da song
;   exportFileFormat,gcode
;   celebration,0
;   celebrationSong,Random Song
;   postProcessing,curl -k -H "X-Api-Key:9736541E59C642469199F7865F57146F"  -F "select=false" -F "print=false" -F "file=@[output_filepath]" "http://192.168.2.212/api/files/local" {STRIP "; postProcessing"}
;   defaultSpeed,2600
;   outlineUnderspeed,0.74
;   solidInfillUnderspeed,0.8
;   supportUnderspeed,0.8
;   rapidXYspeed,4200
;   rapidZspeed,1200
;   minBridgingArea,5
;   bridgingExtraInflation,1
;   bridgingExtrusionMultiplier,0.6
;   bridgingSpeedMultiplier,0.5
;   useFixedBridgingAngle,0
;   fixedBridgingAngle,1
;   applyBridgingToPerimeters,1
;   filamentDiameters,1.75|1.75|1.75|1.75|1.75|1.75
;   filamentPricesPerKg,46|46|46|46|46|46
;   filamentDensities,1.25|1.25|1.25|1.25|1.25|1.25
;   useMinPrintHeight,0
;   minPrintHeight,0
;   useMaxPrintHeight,0
;   maxPrintHeight,0
;   useDiaphragm,1
;   diaphragmLayerInterval,10
;   robustSlicing,0
;   mergeAllIntoSolid,0
;   onlyRetractWhenCrossingOutline,1
;   retractBetweenLayers,0
;   useRetractionMinTravel,0
;   retractionMinTravel,3
;   retractWhileWiping,1
;   onlyWipeOutlines,1
;   avoidCrossingOutline,1
;   maxMovementDetourFactor,10
;   toolChangeRetractionDistance,12
;   toolChangeExtraRestartDistance,-0.5
;   toolChangeRetractionSpeed,600
;   externalThinWallType,0
;   internalThinWallType,2
;   thinWallAllowedOverlapPercentage,20
;   singleExtrusionMinLength,1
;   singleExtrusionMinPrintingWidthPercentage,50
;   singleExtrusionMaxPrintingWidthPercentage,110
;   singleExtrusionEndpointExtension,0.1
;   horizontalSizeCompensation,0
G90
M83
M73 P0 ; Enable build progress
G162 X Y F3000 ; Home XY maximum
G161 Z F1200 ; Home Z minimum
G92 Z-5 ; Set Z to -5
G1 Z0 ; Move Z to 0
G161 Z F100 ; Home Z slowly
M132 X Y Z A B ; Recall home offsets
M135 T0 ; Load right extruder offsets
G1 X-110 Y-70 Z30 F9000 ; Move to wait position off table
G130 X20 Y20 Z20 A20 B20 ; Lower stepper Vrefs while heating
M127 ; Set fan speed
M140 S50 T0 ; Heat buildplate 
M134 T0 ; Stabilize bed temperature
M104 S205 T0 ; Heat right extruder
M133 T0 ; Stabilize right extruder temperature
G130 X127 Y127 Z40 A127 B127 ; Default stepper Vrefs
G92 A0 B0 ; Zero extruders
G1 X100 Y-70 F9000 ; Move to front right corner of bed
G1 Z0.3 F6000 ; Move down to purge
G1 X-90 Y-70 E24 F2000 ; Extrude a line of filament across the front edge of the bed
G1 X-100 Y-70 F180 ; Wait for ooze
G1 X-110 Y-70 F5000 ; Fast wipe
G1 Z0.5 F100 ; Lift
M73 P1 ; @body (notify GPX body has started)
; process Print With Left PLA
; layer 1, Z = 0.270
M135 T0
G1 E-1.6000 F1200
; feature inner perimeter
; tool H0.270 W0.470
G1 Z0.400 F1200
G1 X7.415 Y26.591 F4200
G1 Z0.270 F1200
G1 E1.8000 F1200
G1 X7.415 Y27.315 E0.0344 F1357
G1 X6.797 Y27.315 E0.0293
G1 X7.285 Y26.744 E0.0357
G1 X7.415 Y26.591 F1357
G1 X4.185 Y26.756 F4200
G1 X2.239 Y29.035
G1 X-2.254 Y29.035
G1 X-3.851 Y27.164
G1 X-6.812 Y27.315
G1 X-7.415 Y27.315 E0.0286 F1357
G1 X-7.415 Y26.609 E0.0335
G1 X-6.942 Y27.163 E0.0346
G1 X-6.812 Y27.315 F1357
G1 X-9.765 Y26.542 F4200
G1 X-9.765 Y25.665
G1 X-13.115 Y25.665
G1 X-22.092 Y23.315
G1 X-26.415 Y23.315 E0.2052 F1357
G1 X-26.415 Y-23.315 E2.2141
G1 X-22.092 Y-23.315 E0.2052
G1 X-22.092 Y23.115 E2.2046
G1 X-22.092 Y23.315 F1357
G1 X-7.137 Y23.315 F4200
G1 X-2.254 Y29.035
G1 X2.239 Y29.035
G1 X7.122 Y23.315
G1 X22.078 Y23.315
G1 X22.078 Y-23.315 E2.2141 F1357
G1 X26.415 Y-23.315 E0.2060
G1 X26.415 Y23.315 E2.2141
G1 X22.277 Y23.315 E0.1965
G1 X22.078 Y23.315 F1357
G1 X19.727 Y15.316 F4200
G1 X19.727 Y-22.135
G1 X8.724 Y-22.135
G1 X7.415 Y-26.591
G1 X6.797 Y-27.315 E0.0452 F1357
G1 X7.415 Y-27.315 E0.0293
G1 X7.415 Y-26.791 E0.0249
G1 X7.415 Y-26.591 F1357
G1 X4.185 Y-26.756 F4200
G1 X2.239 Y-29.035
G1 X-2.254 Y-29.035
G1 X-3.851 Y-27.164
G1 X-6.812 Y-27.315
G1 X-7.415 Y-26.609 E0.0441 F1357
G1 X-7.415 Y-27.315 E0.0335
G1 X-7.012 Y-27.315 E0.0191
G1 X-6.812 Y-27.315 F1357
G1 X-5.793 Y-27.785 F4200
G1 X-7.885 Y-25.334 E0.1530 F1357
G1 X-7.885 Y-27.785 E0.1164
G1 X-5.993 Y-27.785 E0.0898
G1 X-5.793 Y-27.785 F1357
G1 X-3.321 Y-27.785 F4200
G1 X-2.254 Y-29.035
G1 X2.239 Y-29.035
G1 X3.306 Y-27.785
G1 X5.778 Y-27.785
G1 X7.885 Y-27.785 E0.1000 F1357
G1 X7.885 Y-25.317 E0.1172
G1 X5.908 Y-27.633 E0.1446
G1 X5.778 Y-27.785 F1357
G1 X9.765 Y-26.778 F4200
G1 X9.765 Y-25.665
G1 X14.168 Y-25.665
G1 X21.608 Y-23.785
G1 X26.885 Y-23.785 E0.2506 F1357
G1 X26.885 Y23.785 E2.2588
G1 X21.608 Y23.785 E0.2506
G1 X21.608 Y-23.585 E2.2493
G1 X21.608 Y-23.785 F1357
G1 X6.721 Y-23.785 F4200
G1 X2.239 Y-29.035
G1 X-2.254 Y-29.035
G1 X-6.736 Y-23.785
G1 X-21.622 Y-23.785
G1 X-21.622 Y23.785 E2.2588 F1357
G1 X-26.885 Y23.785 E0.2499
G1 X-26.885 Y-23.785 E2.2588
G1 X-21.822 Y-23.785 E0.2404
G1 X-21.622 Y-23.785 F1357
G1 X-19.742 Y-17.063 F4200
G1 X-19.742 Y22.135
G1 X-8.780 Y22.135
G1 X-7.885 Y25.334
G1 X-5.793 Y27.785 E0.1530 F1357
G1 X-7.885 Y27.785 E0.0993
G1 X-7.885 Y25.534 E0.1069
G1 X-7.885 Y25.334 F1357
G1 X-4.966 Y25.858 F4200
G1 X-2.254 Y29.035
G1 X2.239 Y29.035
G1 X3.634 Y27.401
G1 X5.778 Y27.785
G1 X7.885 Y25.317 E0.1541 F1357
G1 X7.885 Y27.785 E0.1172
G1 X5.978 Y27.785 E0.0905
G1 X5.778 Y27.785 F1357
G1 X4.759 Y28.255 F4200
G1 X8.355 Y24.042 E0.2630 F1357
G1 X8.780 Y23.545 E0.0311
G1 X21.137 Y23.545 E0.5868
G1 X21.137 Y-23.545 E2.2360
G1 X8.780 Y-23.545 E0.5868
G1 X8.174 Y-24.255 E0.0443
G1 X4.759 Y-28.255 E0.2497
G1 X8.355 Y-28.255 E0.1708
G1 X8.355 Y-24.255 E0.1899
G1 X27.355 Y-24.255 E0.9022
G1 X27.355 Y24.255 E2.3034
G1 X8.355 Y24.255 E0.9022
G1 X8.355 Y28.255 E0.1899
G1 X4.959 Y28.255 E0.1613
G1 X4.759 Y28.255 F1357
G1 X2.905 Y28.255 F4200
G1 X2.239 Y29.035
G1 X-2.254 Y29.035
G1 X-2.920 Y28.255
G1 X-4.774 Y28.255
G1 X-8.355 Y28.255 E0.1700 F1357
G1 X-8.355 Y24.255 E0.1899
G1 X-27.355 Y24.255 E0.9022
G1 X-27.355 Y-24.255 E2.3034
G1 X-8.355 Y-24.255 E0.9022
G1 X-8.355 Y-28.255 E0.1899
G1 X-4.774 Y-28.255 E0.1700
G1 X-8.355 Y-24.060 E0.2619
G1 X-8.795 Y-23.545 E0.0322
G1 X-21.152 Y-23.545 E0.5868
G1 X-21.152 Y23.545 E2.2360
G1 X-8.795 Y23.545 E0.5868
G1 X-8.189 Y24.255 E0.0443
G1 X-4.904 Y28.103 E0.2402
G1 X-4.774 Y28.255 F1357
G1 X-3.755 Y28.725 F4200
G1 X-8.825 Y28.725 E0.2408 F1357
G1 X-8.825 Y24.725 E0.1899
G1 X-27.825 Y24.725 E0.9022
G1 X-27.825 Y-24.725 E2.3480
G1 X-8.825 Y-24.725 E0.9022
G1 X-8.825 Y-28.725 E0.1899
G1 X-3.755 Y-28.725 E0.2408
G1 X-8.578 Y-23.075 E0.3527
G1 X-20.682 Y-23.075 E0.5748
G1 X-20.682 Y23.075 E2.1913
G1 X-8.578 Y23.075 E0.5748
G1 X-3.885 Y28.573 E0.3432
G1 X-3.755 Y28.725 F1357
G1 X-2.519 Y28.725 F4200
G1 X-2.254 Y29.035
G1 X2.239 Y29.035
G1 X2.504 Y28.725
G1 X3.740 Y28.725
G1 X8.563 Y23.075 E0.3527 F1357
G1 X20.668 Y23.075 E0.5748
G1 X20.668 Y-23.075 E2.1913
G1 X8.563 Y-23.075 E0.5748
G1 X3.740 Y-28.725 E0.3527
G1 X8.825 Y-28.725 E0.2415
G1 X8.825 Y-24.725 E0.1899
G1 X27.825 Y-24.725 E0.9022
G1 X27.825 Y24.725 E2.3480
G1 X8.825 Y24.725 E0.9022
G1 X8.825 Y28.725 E0.1899
G1 X3.940 Y28.725 E0.2320
G1 X3.740 Y28.725 F1357
G1 X2.721 Y29.195 F4200
G1 X8.346 Y22.605 E0.4114 F1357
G1 X20.198 Y22.605 E0.5627
G1 X20.198 Y-22.605 E2.1467
G1 X8.346 Y-22.605 E0.5627
G1 X2.721 Y-29.195 E0.4114
G1 X9.295 Y-29.195 E0.3122
G1 X9.295 Y-25.195 E0.1899
G1 X28.295 Y-25.195 E0.9022
G1 X28.295 Y25.195 E2.3927
G1 X9.295 Y25.195 E0.9022
G1 X9.295 Y29.195 E0.1899
G1 X2.921 Y29.195 E0.3027
G1 X2.721 Y29.195 F1357
G1 X-2.736 Y29.195 F4200
G1 X-9.295 Y29.195 E0.3115 F1357
G1 X-9.295 Y25.195 E0.1899
G1 X-28.295 Y25.195 E0.9022
G1 X-28.295 Y-25.195 E2.3927
G1 X-9.295 Y-25.195 E0.9022
G1 X-9.295 Y-29.195 E0.1899
G1 X-2.736 Y-29.195 E0.3115
G1 X-8.361 Y-22.605 E0.4114
G1 X-20.212 Y-22.605 E0.5627
G1 X-20.212 Y22.605 E2.1467
G1 X-8.361 Y22.605 E0.5627
G1 X-2.865 Y29.043 E0.4019
G1 X-2.736 Y29.195 F1357
; feature outer perimeter
G1 X-9.765 Y29.665 F4200
G1 X-9.765 Y25.665 E0.1899 F1154
G1 X-28.765 Y25.665 E0.9022
G1 X-28.765 Y-25.665 E2.4373
G1 X-9.765 Y-25.665 E0.9022
G1 X-9.765 Y-29.665 E0.1899
G1 X9.765 Y-29.665 E0.9273
G1 X9.765 Y-25.665 E0.1899
G1 X28.765 Y-25.665 E0.9022
G1 X28.765 Y25.665 E2.4373
G1 X9.765 Y25.665 E0.9022
G1 X9.765 Y29.665 E0.1899
G1 X-9.565 Y29.665 E0.9178
G1 X-9.765 Y29.665 F1154
G1 X-9.765 Y27.665 F1154
G1 X-8.144 Y22.135 F4200
G1 X-2.254 Y29.035 E0.4308 F1154
G1 X2.239 Y29.035 E0.2134
G1 X8.129 Y22.135 E0.4308
G1 X19.727 Y22.135 E0.5507
G1 X19.727 Y-22.135 E2.1021
G1 X8.129 Y-22.135 E0.5507
G1 X2.239 Y-29.035 E0.4308
G1 X-2.254 Y-29.035 E0.2134
G1 X-8.144 Y-22.135 E0.4308
G1 X-19.742 Y-22.135 E0.5507
G1 X-19.742 Y22.135 E2.1021
G1 X-8.344 Y22.135 E0.5412
G1 X-8.144 Y22.135 F1154
G1 X-6.846 Y23.656 F1154
; feature gap fill
G1 X-9.454 Y23.780 F4200
G1 X-9.214 Y24.020 E0.0161 F1560
G1 X-9.879 Y24.020 E0.0316
G1 X-10.119 Y23.780 E0.0161
G1 X-10.783 Y23.780 E0.0316
G1 X-10.543 Y24.020 E0.0161
G1 X-11.208 Y24.020 E0.0316
G1 X-11.448 Y23.780 E0.0161
G1 X-12.113 Y23.780 E0.0316
G1 X-11.873 Y24.020 E0.0161
G1 X-12.537 Y24.020 E0.0316
G1 X-12.777 Y23.780 E0.0161
G1 X-13.442 Y23.780 E0.0316
G1 X-13.202 Y24.020 E0.0161
G1 X-13.867 Y24.020 E0.0316
G1 X-14.107 Y23.780 E0.0161
G1 X-14.771 Y23.780 E0.0316
G1 X-14.531 Y24.020 E0.0161
G1 X-15.196 Y24.020 E0.0316
G1 X-15.436 Y23.780 E0.0161
G1 X-16.101 Y23.780 E0.0316
G1 X-15.861 Y24.020 E0.0161
G1 X-16.525 Y24.020 E0.0316
G1 X-16.765 Y23.780 E0.0161
G1 X-17.430 Y23.780 E0.0316
G1 X-17.190 Y24.020 E0.0161
G1 X-17.855 Y24.020 E0.0316
G1 X-18.095 Y23.780 E0.0161
G1 X-18.760 Y23.780 E0.0316
G1 X-18.520 Y24.020 E0.0161
G1 X-19.184 Y24.020 E0.0316
G1 X-19.424 Y23.780 E0.0161
G1 X-20.089 Y23.780 E0.0316
G1 X-19.849 Y24.020 E0.0161
G1 X-20.514 Y24.020 E0.0316
G1 X-20.754 Y23.780 E0.0161
G1 X-21.383 Y23.780 E0.0299
G1 X-21.383 Y23.815 E0.0017
G1 X-21.320 Y23.879 E0.0042
G1 X-21.178 Y24.020 F1560
G1 X-15.289 Y25.665 F4200
G1 X-9.765 Y25.665
G1 X-9.765 Y27.208
G1 X-1.810 Y29.430
G1 X-1.970 Y29.270 E0.0107 F1560
G1 X-1.305 Y29.270 E0.0316
G1 X-1.145 Y29.430 E0.0107
G1 X-0.481 Y29.430 E0.0316
G1 X-0.641 Y29.270 E0.0107
G1 X0.024 Y29.270 E0.0316
G1 X0.184 Y29.430 E0.0107
G1 X0.849 Y29.430 E0.0316
G1 X0.689 Y29.270 E0.0107
G1 X1.353 Y29.270 E0.0316
G1 X1.513 Y29.430 E0.0107
G1 X2.178 Y29.430 E0.0316
G1 X2.160 Y29.411 E0.0012
G1 X2.018 Y29.270 F1560
G1 X8.706 Y23.993 F4200
G1 X8.732 Y24.020 E0.0018 F1560
G1 X9.397 Y24.020 E0.0316
G1 X9.157 Y23.780 E0.0161
G1 X9.822 Y23.780 E0.0316
G1 X10.062 Y24.020 E0.0161
G1 X10.726 Y24.020 E0.0316
G1 X10.486 Y23.780 E0.0161
G1 X11.151 Y23.780 E0.0316
G1 X11.391 Y24.020 E0.0161
G1 X12.056 Y24.020 E0.0316
G1 X11.816 Y23.780 E0.0161
G1 X12.480 Y23.780 E0.0316
G1 X12.720 Y24.020 E0.0161
G1 X13.385 Y24.020 E0.0316
G1 X13.145 Y23.780 E0.0161
G1 X13.810 Y23.780 E0.0316
