; G-Code generated by Simplify3D(R) Version 4.1.2
; May 15, 2022 at 4:30:39 PM
; Settings Summary
;   processName,Print With Left PLA
;   applyToModels,legs
;   profileName,Qidi  Qidi Tech I (low res fast) (right only) (modified)
;   profileVersion,2022-04-17 15:50:12
;   baseProfile,Qidi Technology Qidi Tech I (modified)
;   printMaterial,PLA (right) PVA (left)
;   printQuality,Medium
;   printExtruders,Right Extruder Only
;   extruderName,Right Extruder,Left Extruder
;   extruderToolheadNumber,0,1
;   extruderDiameter,0.4,0.4
;   extruderAutoWidth,0,1
;   extruderWidth,0.47,0.48
;   extrusionMultiplier,0.9,0.95
;   extruderUseRetract,1,1
;   extruderRetractionDistance,1.6,0.2
;   extruderExtraRestartDistance,0.2,0
;   extruderRetractionZLift,0.4,1
;   extruderRetractionSpeed,1200,1200
;   extruderUseCoasting,1,1
;   extruderCoastingDistance,0.2,0.2
;   extruderUseWipe,1,1
;   extruderWipeDistance,2,5
;   primaryExtruder,0
;   layerHeight,0.3
;   topSolidLayers,3
;   bottomSolidLayers,3
;   perimeterOutlines,6
;   printPerimetersInsideOut,1
;   startPointOption,2
;   startPointOriginX,0
;   startPointOriginY,0
;   sequentialIslands,0
;   spiralVaseMode,0
;   firstLayerHeightPercentage,90
;   firstLayerWidthPercentage,100
;   firstLayerUnderspeed,0.6
;   useRaft,0
;   raftExtruder,0
;   raftTopLayers,2
;   raftBaseLayers,1
;   raftOffset,3
;   raftSeparationDistance,0.05
;   raftTopInfill,99
;   aboveRaftSpeedMultiplier,0.5
;   useSkirt,0
;   skirtExtruder,0
;   skirtLayers,1
;   skirtOutlines,2
;   skirtOffset,4
;   usePrimePillar,0
;   primePillarExtruder,999
;   primePillarWidth,12
;   primePillarLocation,7
;   primePillarSpeedMultiplier,1
;   useOozeShield,0
;   oozeShieldExtruder,999
;   oozeShieldOffset,2
;   oozeShieldOutlines,1
;   oozeShieldSidewallShape,1
;   oozeShieldSidewallAngle,30
;   oozeShieldSpeedMultiplier,1
;   infillExtruder,0
;   internalInfillPattern,Full Honeycomb
;   externalInfillPattern,Rectilinear
;   infillPercentage,10
;   outlineOverlapPercentage,50
;   infillExtrusionWidthPercentage,100
;   minInfillLength,8
;   infillLayerInterval,1
;   internalInfillAngles,0,120,-120
;   overlapInternalInfillAngles,0
;   externalInfillAngles,45,-45
;   generateSupport,1
;   supportExtruder,0
;   supportInfillPercentage,20
;   supportExtraInflation,0.2
;   supportBaseLayers,3
;   denseSupportExtruder,0
;   denseSupportLayers,1
;   denseSupportInfillPercentage,1
;   supportLayerInterval,1
;   supportHorizontalPartOffset,0.2
;   supportUpperSeparationLayers,1
;   supportLowerSeparationLayers,1
;   supportType,1
;   supportGridSpacing,2.5
;   maxOverhangAngle,0
;   supportAngles,0
;   temperatureName,Right Extruder,Left Extruder,Heated Build Platform
;   temperatureNumber,0,1,0
;   temperatureSetpointCount,1,1,1
;   temperatureSetpointLayers,1,1,1
;   temperatureSetpointTemperatures,205,0,50
;   temperatureStabilizeAtStartup,0,0,1
;   temperatureHeatedBed,0,0,1
;   fanLayers,1,2
;   fanSpeeds,0,100
;   blipFanToFullPower,0
;   adjustSpeedForCooling,1
;   minSpeedLayerTime,15
;   minCoolingSpeedSlowdown,65
;   increaseFanForCooling,1
;   minFanLayerTime,45
;   maxCoolingFanSpeed,100
;   increaseFanForBridging,0
;   bridgingFanSpeed,100
;   use5D,1
;   relativeEdistances,1
;   allowEaxisZeroing,0
;   independentExtruderAxes,1
;   includeM10123,0
;   stickySupport,1
;   applyToolheadOffsets,0
;   gcodeXoffset,0
;   gcodeYoffset,0
;   gcodeZoffset,0
;   overrideMachineDefinition,1
;   machineTypeOverride,0
;   strokeXoverride,225
;   strokeYoverride,145
;   strokeZoverride,150
;   originOffsetXoverride,112.5
;   originOffsetYoverride,72.5
;   originOffsetZoverride,0
;   homeXdirOverride,1
;   homeYdirOverride,1
;   homeZdirOverride,-1
;   flipXoverride,1
;   flipYoverride,-1
;   flipZoverride,1
;   toolheadOffsets,0,0|34,0|0,0|0,0|0,0|0,0
;   overrideFirmwareConfiguration,1
;   firmwareTypeOverride,MakerBot/Sailfish Firmware
;   GPXconfigOverride,r1d
;   baudRateOverride,115200
;   overridePrinterModels,1
;   printerModelsOverride,MakerBot_Replicator1.stl
;   startingGcode,M73 P0 ; Enable build progress,G162 X Y F3000 ; Home XY maximum,G161 Z F1200 ; Home Z minimum,G92 Z-5 ; Set Z to -5,G1 Z0 ; Move Z to 0,G161 Z F100 ; Home Z slowly,M132 X Y Z A B ; Recall home offsets,M135 T0 ; Load right extruder offsets,G1 X-110 Y-70 Z30 F9000 ; Move to wait position off table,G130 X20 Y20 Z20 A20 B20 ; Lower stepper Vrefs while heating,M126 S[fan_speed_pwm] ; Set fan speed,M140 S[bed0_temperature] T0 ; Heat buildplate ,M134 T0 ; Stabilize bed temperature,M104 S[extruder0_temperature] T0 ; Heat right extruder,M133 T0 ; Stabilize right extruder temperature,G130 X127 Y127 Z40 A127 B127 ; Default stepper Vrefs,G92 A0 B0 ; Zero extruders,G1 X100 Y-70 F9000 ; Move to front right corner of bed,G1 Z0.3 F6000 ; Move down to purge,G1 X-90 Y-70 E24 F2000 ; Extrude a line of filament across the front edge of the bed,G1 X-100 Y-70 F180 ; Wait for ooze,G1 X-110 Y-70 F5000 ; Fast wipe,G1 Z0.5 F100 ; Lift,M73 P1 ; @body (notify GPX body has started)
;   layerChangeGcode,
;   retractionGcode,
;   toolChangeGcode,
;   endingGcode,M73 P100 ; end build progress,G1 Z150 F1000 ; send Z axis to bottom of machine,M140 S0 T0 ; cool down HBP,M104 S0 T0 ; cool down right extruder,M104 S0 T1 ; cool down left extruder,M127 ; stop blower fan,G162 X Y F3000 ; home XY maximum,M18 ; disable stepper,M72 P1 ; play Ta-Da song
;   exportFileFormat,gcode
;   celebration,0
;   celebrationSong,Random Song
;   postProcessing,curl -k -H "X-Api-Key:9736541E59C642469199F7865F57146F"  -F "select=false" -F "print=false" -F "file=@[output_filepath]" "http://192.168.2.212/api/files/local" {STRIP "; postProcessing"}
;   defaultSpeed,2600
;   outlineUnderspeed,0.74
;   solidInfillUnderspeed,0.8
;   supportUnderspeed,0.8
;   rapidXYspeed,4200
;   rapidZspeed,1200
;   minBridgingArea,5
;   bridgingExtraInflation,1
;   bridgingExtrusionMultiplier,0.6
;   bridgingSpeedMultiplier,0.5
;   useFixedBridgingAngle,0
;   fixedBridgingAngle,1
;   applyBridgingToPerimeters,1
;   filamentDiameters,1.75|1.75|1.75|1.75|1.75|1.75
;   filamentPricesPerKg,46|46|46|46|46|46
;   filamentDensities,1.25|1.25|1.25|1.25|1.25|1.25
;   useMinPrintHeight,0
;   minPrintHeight,0
;   useMaxPrintHeight,0
;   maxPrintHeight,0
;   useDiaphragm,1
;   diaphragmLayerInterval,10
;   robustSlicing,0
;   mergeAllIntoSolid,0
;   onlyRetractWhenCrossingOutline,1
;   retractBetweenLayers,0
;   useRetractionMinTravel,0
;   retractionMinTravel,3
;   retractWhileWiping,1
;   onlyWipeOutlines,1
;   avoidCrossingOutline,1
;   maxMovementDetourFactor,10
;   toolChangeRetractionDistance,12
;   toolChangeExtraRestartDistance,-0.5
;   toolChangeRetractionSpeed,600
;   externalThinWallType,0
;   internalThinWallType,2
;   thinWallAllowedOverlapPercentage,20
;   singleExtrusionMinLength,1
;   singleExtrusionMinPrintingWidthPercentage,50
;   singleExtrusionMaxPrintingWidthPercentage,110
;   singleExtrusionEndpointExtension,0.1
;   horizontalSizeCompensation,0
G90
M83
M73 P0 ; Enable build progress
G162 X Y F3000 ; Home XY maximum
G161 Z F1200 ; Home Z minimum
G92 Z-5 ; Set Z to -5
G1 Z0 ; Move Z to 0
G161 Z F100 ; Home Z slowly
M132 X Y Z A B ; Recall home offsets
M135 T0 ; Load right extruder offsets
G1 X-110 Y-70 Z30 F9000 ; Move to wait position off table
G130 X20 Y20 Z20 A20 B20 ; Lower stepper Vrefs while heating
M127 ; Set fan speed
M140 S50 T0 ; Heat buildplate 
M134 T0 ; Stabilize bed temperature
M104 S205 T0 ; Heat right extruder
M133 T0 ; Stabilize right extruder temperature
G130 X127 Y127 Z40 A127 B127 ; Default stepper Vrefs
G92 A0 B0 ; Zero extruders
G1 X100 Y-70 F9000 ; Move to front right corner of bed
G1 Z0.3 F6000 ; Move down to purge
G1 X-90 Y-70 E24 F2000 ; Extrude a line of filament across the front edge of the bed
G1 X-100 Y-70 F180 ; Wait for ooze
G1 X-110 Y-70 F5000 ; Fast wipe
G1 Z0.5 F100 ; Lift
M73 P1 ; @body (notify GPX body has started)
; process Print With Left PLA
; layer 1, Z = 0.270
M135 T0
G1 E-1.6000 F1200
; feature inner perimeter
; tool H0.270 W0.470
G1 Z0.400 F1200
G1 X28.785 Y-12.885 F4200
G1 Z0.270 F1200
G1 E1.8000 F1200
G1 X28.785 Y-31.885 E0.9022 F1357
G1 X-28.785 Y-31.885 E2.7336
G1 X-28.785 Y-12.885 E0.9022
G1 X-31.765 Y-12.885 E0.1415
G1 X-31.765 Y-37.415 E1.1648
G1 X31.765 Y-37.415 E3.0166
G1 X31.765 Y-12.885 E1.1648
G1 X28.985 Y-12.885 E0.1320
G1 X28.785 Y-12.885 F1357
G1 X28.785 Y-10.535 F4200
G1 X30.435 Y-10.535
G1 X30.435 Y10.535
G1 X28.785 Y10.535
G1 X28.785 Y12.885
G1 X31.765 Y12.885 E0.1415 F1357
G1 X31.765 Y37.415 E1.1648
G1 X-31.765 Y37.415 E3.0166
G1 X-31.765 Y12.885 E1.1648
G1 X-28.785 Y12.885 E0.1415
G1 X-28.785 Y31.885 E0.9022
G1 X28.785 Y31.885 E2.7336
G1 X28.785 Y13.085 E0.8927
G1 X28.785 Y12.885 F1357
G1 X28.315 Y12.415 F4200
G1 X32.235 Y12.415 E0.1861 F1357
G1 X32.235 Y37.885 E1.2094
G1 X-32.235 Y37.885 E3.0612
G1 X-32.235 Y12.415 E1.2094
G1 X-28.315 Y12.415 E0.1861
G1 X-28.315 Y31.415 E0.9022
G1 X28.315 Y31.415 E2.6890
G1 X28.315 Y12.615 E0.8927
G1 X28.315 Y12.415 F1357
G1 X28.315 Y10.535 F4200
G1 X30.435 Y10.535
G1 X30.435 Y-10.535
G1 X28.315 Y-10.535
G1 X28.315 Y-12.415
G1 X28.315 Y-31.415 E0.9022 F1357
G1 X-28.315 Y-31.415 E2.6890
G1 X-28.315 Y-12.415 E0.9022
G1 X-32.235 Y-12.415 E0.1861
G1 X-32.235 Y-37.885 E1.2094
G1 X32.235 Y-37.885 E3.0612
G1 X32.235 Y-12.415 E1.2094
G1 X28.515 Y-12.415 E0.1766
G1 X28.315 Y-12.415 F1357
G1 X34.115 Y-17.039 F4200
G1 X34.115 Y-36.235
G1 X58.196 Y-36.235
G1 X60.855 Y-38.355
G1 X60.855 Y38.355 E3.6424 F1357
G1 X-60.855 Y38.355 E5.7792
G1 X-60.855 Y-38.355 E3.6424
G1 X60.655 Y-38.355 E5.7697
G1 X60.855 Y-38.355 F1357
G1 X61.325 Y-38.825 F4200
G1 X61.325 Y38.825 E3.6871 F1357
G1 X-61.325 Y38.825 E5.8238
G1 X-61.325 Y-38.825 E3.6871
G1 X61.125 Y-38.825 E5.8143
G1 X61.325 Y-38.825 F1357
G1 X61.795 Y-39.295 F4200
G1 X61.795 Y39.295 E3.7317 F1357
G1 X-61.795 Y39.295 E5.8684
G1 X-61.795 Y-39.295 E3.7317
G1 X61.595 Y-39.295 E5.8589
G1 X61.795 Y-39.295 F1357
; feature outer perimeter
G1 X62.265 Y-39.765 F4200
G1 X62.265 Y39.765 E3.7763 F1154
G1 X-62.265 Y39.765 E5.9131
G1 X-62.265 Y-39.765 E3.7763
G1 X62.065 Y-39.765 E5.9036
G1 X62.265 Y-39.765 F1154
G1 X62.265 Y-37.765 F1154
; feature inner perimeter
G1 X59.995 Y-37.645 F4200
G1 X32.705 Y-37.645 E1.2958 F1357
G1 X32.705 Y37.645 E3.5750
G1 X59.995 Y37.645 E1.2958
G1 X59.995 Y-37.445 E3.5655
G1 X59.995 Y-37.645 F1357
G1 X59.525 Y-37.175 F4200
G1 X33.175 Y-37.175 E1.2512 F1357
G1 X33.175 Y37.175 E3.5304
G1 X59.525 Y37.175 E1.2512
G1 X59.525 Y-36.975 E3.5209
G1 X59.525 Y-37.175 F1357
G1 X59.055 Y-36.705 F4200
G1 X33.645 Y-36.705 E1.2065 F1357
G1 X33.645 Y36.705 E3.4857
G1 X59.055 Y36.705 E1.2065
G1 X59.055 Y-36.505 E3.4762
G1 X59.055 Y-36.705 F1357
; feature outer perimeter
G1 X58.585 Y-36.235 F4200
G1 X34.115 Y-36.235 E1.1619 F1154
G1 X34.115 Y36.235 E3.4411
G1 X58.585 Y36.235 E1.1619
G1 X58.585 Y-36.035 E3.4316
G1 X58.585 Y-36.235 F1154
G1 X56.585 Y-36.235 F1154
; feature inner perimeter
G1 X34.115 Y-36.235 F4200
G1 X34.115 Y-32.099
G1 X27.845 Y-30.945
G1 X-27.845 Y-30.945 E2.6443 F1357
G1 X-27.845 Y-11.945 E0.9022
G1 X-31.845 Y-11.945 E0.1899
G1 X-31.845 Y11.945 E1.1344
G1 X-27.845 Y11.945 E0.1899
G1 X-27.845 Y30.945 E0.9022
G1 X27.845 Y30.945 E2.6443
G1 X27.845 Y11.945 E0.9022
G1 X31.845 Y11.945 E0.1899
G1 X31.845 Y-11.945 E1.1344
G1 X27.845 Y-11.945 E0.1899
G1 X27.845 Y-30.745 E0.8927
G1 X27.845 Y-30.945 F1357
G1 X27.375 Y-30.475 F4200
G1 X-27.375 Y-30.475 E2.5997 F1357
G1 X-27.375 Y-11.475 E0.9022
G1 X-31.375 Y-11.475 E0.1899
G1 X-31.375 Y11.475 E1.0897
G1 X-27.375 Y11.475 E0.1899
G1 X-27.375 Y30.475 E0.9022
G1 X27.375 Y30.475 E2.5997
G1 X27.375 Y11.475 E0.9022
G1 X31.375 Y11.475 E0.1899
G1 X31.375 Y-11.475 E1.0897
G1 X27.375 Y-11.475 E0.1899
G1 X27.375 Y-30.275 E0.8927
G1 X27.375 Y-30.475 F1357
G1 X26.905 Y-30.005 F4200
G1 X-26.905 Y-30.005 E2.5551 F1357
G1 X-26.905 Y-11.005 E0.9022
G1 X-30.905 Y-11.005 E0.1899
G1 X-30.905 Y11.005 E1.0451
G1 X-26.905 Y11.005 E0.1899
G1 X-26.905 Y30.005 E0.9022
G1 X26.905 Y30.005 E2.5551
G1 X26.905 Y11.005 E0.9022
G1 X30.905 Y11.005 E0.1899
G1 X30.905 Y-11.005 E1.0451
G1 X26.905 Y-11.005 E0.1899
G1 X26.905 Y-29.805 E0.8927
G1 X26.905 Y-30.005 F1357
; feature outer perimeter
G1 X26.435 Y-29.535 F4200
G1 X-26.435 Y-29.535 E2.5104 F1154
G1 X-26.435 Y-10.535 E0.9022
G1 X-30.435 Y-10.535 E0.1899
G1 X-30.435 Y10.535 E1.0005
G1 X-26.435 Y10.535 E0.1899
G1 X-26.435 Y29.535 E0.9022
G1 X26.435 Y29.535 E2.5104
G1 X26.435 Y10.535 E0.9022
G1 X30.435 Y10.535 E0.1899
G1 X30.435 Y-10.535 E1.0005
G1 X26.435 Y-10.535 E0.1899
G1 X26.435 Y-29.335 E0.8927
G1 X26.435 Y-29.535 F1154
G1 X24.435 Y-29.535 F1154
; feature inner perimeter
G1 X-32.705 Y-37.645 F4200
G1 X-59.995 Y-37.645 E1.2958 F1357
G1 X-59.995 Y37.645 E3.5750
G1 X-32.705 Y37.645 E1.2958
G1 X-32.705 Y-37.445 E3.5655
G1 X-32.705 Y-37.645 F1357
G1 X-33.175 Y-37.175 F4200
G1 X-59.525 Y-37.175 E1.2512 F1357
G1 X-59.525 Y37.175 E3.5304
G1 X-33.175 Y37.175 E1.2512
G1 X-33.175 Y-36.975 E3.5209
G1 X-33.175 Y-37.175 F1357
G1 X-33.645 Y-36.705 F4200
G1 X-59.055 Y-36.705 E1.2065 F1357
G1 X-59.055 Y36.705 E3.4857
G1 X-33.645 Y36.705 E1.2065
G1 X-33.645 Y-36.505 E3.4762
G1 X-33.645 Y-36.705 F1357
; feature outer perimeter
G1 X-34.115 Y-36.235 F4200
G1 X-58.585 Y-36.235 E1.1619 F1154
G1 X-58.585 Y36.235 E3.4411
G1 X-34.115 Y36.235 E1.1619
G1 X-34.115 Y-36.035 E3.4316
G1 X-34.115 Y-36.235 F1154
G1 X-36.115 Y-36.235 F1154
; feature gap fill
G1 X-32.803 Y-38.120 F4200
G1 X-32.563 Y-37.880 E0.0161 F1560
G1 X-33.227 Y-37.880 E0.0316
G1 X-33.467 Y-38.120 E0.0161
G1 X-34.132 Y-38.120 E0.0316
G1 X-33.892 Y-37.880 E0.0161
G1 X-34.557 Y-37.880 E0.0316
G1 X-34.797 Y-38.120 E0.0161
G1 X-35.461 Y-38.120 E0.0316
G1 X-35.221 Y-37.880 E0.0161
G1 X-35.886 Y-37.880 E0.0316
G1 X-36.126 Y-38.120 E0.0161
G1 X-36.791 Y-38.120 E0.0316
G1 X-36.551 Y-37.880 E0.0161
G1 X-37.215 Y-37.880 E0.0316
G1 X-37.455 Y-38.120 E0.0161
G1 X-38.120 Y-38.120 E0.0316
G1 X-37.880 Y-37.880 E0.0161
G1 X-38.545 Y-37.880 E0.0316
G1 X-38.785 Y-38.120 E0.0161
G1 X-39.449 Y-38.120 E0.0316
G1 X-39.209 Y-37.880 E0.0161
G1 X-39.874 Y-37.880 E0.0316
G1 X-40.114 Y-38.120 E0.0161
G1 X-40.779 Y-38.120 E0.0316
G1 X-40.539 Y-37.880 E0.0161
G1 X-41.203 Y-37.880 E0.0316
G1 X-41.443 Y-38.120 E0.0161
G1 X-42.108 Y-38.120 E0.0316
G1 X-41.868 Y-37.880 E0.0161
G1 X-42.533 Y-37.880 E0.0316
G1 X-42.773 Y-38.120 E0.0161
G1 X-43.437 Y-38.120 E0.0316
G1 X-43.197 Y-37.880 E0.0161
G1 X-43.862 Y-37.880 E0.0316
G1 X-44.102 Y-38.120 E0.0161
G1 X-44.767 Y-38.120 E0.0316
G1 X-44.527 Y-37.880 E0.0161
G1 X-45.191 Y-37.880 E0.0316
G1 X-45.431 Y-38.120 E0.0161
G1 X-46.096 Y-38.120 E0.0316
G1 X-45.856 Y-37.880 E0.0161
G1 X-46.521 Y-37.880 E0.0316
G1 X-46.761 Y-38.120 E0.0161
G1 X-47.426 Y-38.120 E0.0316
G1 X-47.186 Y-37.880 E0.0161
G1 X-47.850 Y-37.880 E0.0316
G1 X-48.090 Y-38.120 E0.0161
G1 X-48.755 Y-38.120 E0.0316
G1 X-48.515 Y-37.880 E0.0161
G1 X-49.180 Y-37.880 E0.0316
G1 X-49.420 Y-38.120 E0.0161
G1 X-50.084 Y-38.120 E0.0316
G1 X-49.844 Y-37.880 E0.0161
G1 X-50.509 Y-37.880 E0.0316
G1 X-50.749 Y-38.120 E0.0161
G1 X-51.414 Y-38.120 E0.0316
G1 X-51.174 Y-37.880 E0.0161
G1 X-51.838 Y-37.880 E0.0316
G1 X-52.078 Y-38.120 E0.0161
G1 X-52.743 Y-38.120 E0.0316
G1 X-52.503 Y-37.880 E0.0161
G1 X-53.168 Y-37.880 E0.0316
G1 X-53.408 Y-38.120 E0.0161
G1 X-54.072 Y-38.120 E0.0316
G1 X-53.832 Y-37.880 E0.0161
G1 X-54.497 Y-37.880 E0.0316
G1 X-54.737 Y-38.120 E0.0161
G1 X-55.402 Y-38.120 E0.0316
G1 X-55.162 Y-37.880 E0.0161
G1 X-55.826 Y-37.880 E0.0316
G1 X-56.066 Y-38.120 E0.0161
G1 X-56.731 Y-38.120 E0.0316
G1 X-56.491 Y-37.880 E0.0161
G1 X-57.156 Y-37.880 E0.0316
G1 X-57.396 Y-38.120 E0.0161
G1 X-58.060 Y-38.120 E0.0316
G1 X-57.820 Y-37.880 E0.0161
G1 X-58.485 Y-37.880 E0.0316
G1 X-58.725 Y-38.120 E0.0161
G1 X-59.390 Y-38.120 E0.0316
G1 X-59.150 Y-37.880 E0.0161
G1 X-59.814 Y-37.880 E0.0316
G1 X-60.054 Y-38.120 E0.0161
G1 X-60.620 Y-38.120 E0.0269
G1 X-60.620 Y-38.021 E0.0047
G1 X-60.230 Y-37.631 E0.0262
G1 X-60.230 Y-36.966 E0.0316
G1 X-60.620 Y-37.356 E0.0262
